X: 101
T:The Perth Waltz
M:3/4
L:1/4
R:40 bar Waltz
K:D
(3A/B/c/|d>A F|F>ED|B,>A,G,|A,2 D3/4E/4|F>ED|d>AF|E3|E2(3A/B/c/|!
d>A F|F>ED|B,>A,G,|A,2 D3/4E/4|F>A d|Fd f|a>f d|d>BG|A2 F3/4G/4|A>df|a>fd|e3|e2 F3/4G/4|!
A>df|a>fd|d>BG|A2 d3/4e/4|fec|d3|d2||!
% 

